X: 310
T:Elzic's Farewell
C:Traditional
M:4/4
L:1/8
Q:1/8=420
K:F
c2 |: [d2d2] df dc df | g2 ga gf dg |\
zf g2 df gd |1 ag f2 d2 c2 :|2 agf2 d4 | !
|: ga z2 ag fe | de fa gf ec | d[d'a] zd [d'2a2] d_e | ec' zd' c'a g2 |!
ga z2ag fe |  de fa gf dc | [d2d2] df dc de | fd ec d4 :|!
|: df dc Ac de | f2 g_a =ac'a2 |ga gf dc de |  fd ec d4 :|

